X:1
T:24a. Aria
T:Thanks to these lonesome Vales
%%score 1 2 { ( 3 4 ) 5 }
L:1/8
Q:1/4=130
M:3/4
K:F
V:1 treble nm="Belinda"
V:2 bass nm="Vcl"
V:3 treble nm="Cembalo, Harpsichord"
V:4 treble 
V:5 bass nm="Cembalo,  "
V:1
|: d3 ^c d2 | e2 f2 ed | e2 f4 | e4 f2 | g2 e4 | f2 e2 A2 | A2 d2 fe | ^c6 :: ^c2 d2 e2 | f6 | %10
w: Thanks to these|lone- * some, _|lone- some|vales, These|des- ert,|des- * ert|hills _ and _|dales.|So fair the|game,|
 =B2 c2 d2 | e4 z e | e2 A2 c=B | ^G3 =B c2 | de dc =BA | A6 | ^c2 d2 e2 | f6 | d2 e2 f2 | g4 z f | %20
w: so rich the|sport, Di-|a- * na's _|self might to|these _ woods _ re- *|sort;|So fair the|game,|so rich the|sport, Di-|
 e2 f2 ed | ^c3 d ed | ef gf ed |1 d6 :|2 d6 |] %25
w: a- * na's _|self might to _|these _ woods _ re- *|sort.|\-sort.|
V:2
|: D,4 D2 | A,2 D2 D,2 | A,2 D,4 | A,,4 A,2 | =B,2 ^C4 | D4 C2 | G,6 | A,3 G, F,E, :: A,6 | %9
 D,2 E,2 F,2 | G,6 | C,2 D,2 E,2 | F,4 D,2 | E,3 D, C,2 | A,,2 E,2 E,,2 | A,,2 A,2 ^G,2 | %16
 A,4 A,,2 | D,2 E,2 F,2 | G,6 | E,2 F,2 G,2 | A,4 B,2 | A,3 G, F,2 | D,2 A,2 A,,2 |1 %23
 D,2 F,2 G,2 :|2 D,6 |] %25
V:3
|: d4 d2 | ^c2 d2 =c=B | ^c2 d4 | d2 ^c4 | d2 A4 | A2 B2 A2- | AA G4 | [^CEA]6 :: A4 G2 | %9
 F2 G2 A2 | =B6 | c6 | c4 d2 | [E^G]4 [EA]2 | =Bc B4 | A^G AE =BE | ^c2 =B2 c2 | d6 | =B2 =c2 d2 | %19
 e4 d2 | d2 ^c2 d2 | ^c4 d2- | d2 d2 ^c2 |1 d6 :|2 d3 ^c de |] %25
V:4
|: F3 E F2 | E2 F4 | AG F4 | E4 FA | GF E4 | F2 E4 | D6 | x6 :: ^C6 | D6 | D3 G FG | E2 F2 G2 | %12
 A3 G F2 | x6 | E2 A2 ^G2 | C4 z2 | E6 | F2 G2 A2 | G6 | G2 A2 =B2 | E2 F3 G | A4 A2 | F2 E4 |1 %23
 F2 A2 B2 :|2 [FA]6 |] %25
V:5
|: D,4 D2 | A,2 D2 D,2 | A,2 D,4 | A,,4 A,2 | =B,2 ^C4 | D4 C2 | B,6 | A,3 G, F,E, :: A,6 | %9
 D,2 E,2 F,2 | G,6 | C,2 D,2 E,2 | F,4 D,2 | E,3 D, C,2 | A,,2 E,2 E,,2 | A,,2 A,2 ^G,2 | %16
 A,4 A,,2 | D,2 E,2 F,2 | G,6 | E,2 F,2 G,2 | A,4 B,2 | A,3 G, F,2 | D,2 A,2 A,,2 |1 %23
 D,2 F,2 G,2 :|2 D,6 |] %25

